X: 8
T: Wise Maid, The
Z: Thomas Foschini
S: https://thesession.org/tunes/118#setting40939
R: reel
M: 4/4
L: 1/8
K: Dmaj
|:DE|F2FG FEDE|F2AB AFED|d2eg fdec|dBAF BE~E2|
F2FG FEDE|F2AB AFED|d2eg fdec|dBAG FD:|
|:FA|d2AG FDFA|dfaf gfeg|fAdf eAce|dfed cA ~A2|
BDGB ADFA|dfaf gfed|Bdce dBAG|FAEA D2:|

